X: 11713
M: 3/8
L: 1/16
K: Am
{B}A^G |\
|: {=f}e^d |\
e2^G2A2 | c2B2 {f}e^d | e2(B2A2) | (e2d2) {cd}cB |\
c2A2 (ef/e/) | c2a2e2 | e{g}fedcB | "^Fin."A4 H:|
K: A
c2c2c2 | c2B2c2 | (d4c2) | B2e2 AB |\
c2c2c2 | c4c2 | c2edcB | A4 :|
|: c2 |\
c2c2c2 | c4c2 | e2(edcB) | "^D.C."A4 :|


